remix/Buildings/home-smile-line.svg

<svg viewBox="0 0 24 24" fill="currentColor" xmlns="http://www.w3.org/2000/svg"><path d="M6 19H18V9.15745L12 3.7029L6 9.15745V19ZM19 21H5C4.44772 21 4 20.5523 4 20V11L1 11L11.3273 1.6115C11.7087 1.26475 12.2913 1.26475 12.6727 1.6115L23 11L20 11V20C20 20.5523 19.5523 21 19 21ZM7.5 13H9.5C9.5 14.3807 10.6193 15.5 12 15.5C13.3807 15.5 14.5 14.3807 14.5 13H16.5C16.5 15.4853 14.4853 17.5 12 17.5C9.51472 17.5 7.5 15.4853 7.5 13Z"/></svg>

<svg viewBox="0 0 24 24" xmlns="http://www.w3.org/2000/svg"><path fill="none" d="M0 0h24v24H0Z"/><path d="M6 19h12V9.157L12 3.7 6 9.157V19Zm13 2H5v0c-.56 0-1-.45-1-1v-9H1l10.327-9.388v0c.38-.35.96-.35 1.346 0L23 11h-3v9 0c0 .55-.45 1-1 1ZM7.5 13h2v0c0 1.38 1.11 2.5 2.5 2.5 1.38 0 2.5-1.12 2.5-2.5h2v0c0 2.48-2.02 4.5-4.5 4.5 -2.49 0-4.5-2.02-4.5-4.5Z"/></svg>
